; Generated with Voxelizer 2
;; { "info": [
;;         { "toolhead": "CNC" },
;;         { "workflow": "2d milling" },
;;         { "voxelizer_version": "v2.0.0-macOS-1-g90eaae" },
;;         { "voxel_size": 0.239999994635582 },
;;         { "printing_time": "42s " },
;;         { "printer": "ZMorph VX" },
;;         { "material_gravity_x": "Left" },
;;         { "material_gravity_y": "Front" },
;;         { "material_size_x": 250.0 },
;;         { "material_size_y": 600.0 },
;;         { "material_size_z": 8.10000038146973 }
;;     ] }
; number of tools: 2
; milling depth: 2.000000
; Operation: Contour
; Tool shape: Cylindrical
; Tool diameter: 2.000000
G1 X49.000 Y21.000 Z5.000 F6000.000
G1 X49.000 Y21.000 Z-2.000 F600.000
G1 X49.000 Y21.000 Z-2.000 F600.000
G1 X21.000 Y21.000 Z-2.000 F600.000
G1 X21.000 Y49.000 Z-2.000 F600.000
G1 X49.000 Y49.000 Z-2.000 F600.000
G1 X49.000 Y21.000 Z-2.000 F600.000
G1 X49.000 Y21.000 Z5.000 F6000.000
; Operation: Contour
; Tool shape: Cylindrical
; Tool diameter: 2.000000
G1 X49.000 Y21.000 Z5.000 F6000.000
G1 X49.000 Y21.000 Z-3.000 F600.000
G1 X49.000 Y21.000 Z-3.000 F600.000
G1 X21.000 Y21.000 Z-3.000 F600.000
G1 X21.000 Y49.000 Z-3.000 F600.000
G1 X49.000 Y49.000 Z-3.000 F600.000
G1 X49.000 Y21.000 Z-3.000 F600.000
G1 X49.000 Y21.000 Z5.000 F6000.000
; Operation: Contour
; Tool shape: Cylindrical
; Tool diameter: 5.000000
G1 X7.500 Y10.000 Z5.000 F6000.000
G1 X7.500 Y10.000 Z-2.000 F600.000
G1 X7.500 Y10.000 Z-2.000 F600.000
G1 X7.500 Y60.000 Z-2.000 F600.000
G1 X7.500 Y62.500 Z-2.000 F600.000
G1 X10.000 Y62.500 Z-2.000 F600.000
G1 X60.000 Y62.500 Z-2.000 F600.000
G1 X62.500 Y62.500 Z-2.000 F600.000
G1 X62.500 Y60.000 Z-2.000 F600.000
G1 X62.500 Y10.000 Z-2.000 F600.000
G1 X62.500 Y7.500 Z-2.000 F600.000
G1 X60.000 Y7.500 Z-2.000 F600.000
G1 X10.000 Y7.500 Z-2.000 F600.000
G1 X7.500 Y7.500 Z-2.000 F600.000
G1 X7.500 Y10.000 Z-2.000 F600.000
G1 X7.500 Y10.000 Z5.000 F6000.000
G1 X10.000 Y10.000 Z5.000 F6000.000
M5
